X:0438
M:6/8
L:1/8
Q:3/8=120
K:G
  GAG  B2c|d2g   dcB| BgB  Agf   |g3  G2::
d|gag b2c'|bd'c' bag| e2e  efg   |abg fed|
  gag b2c'|d'2c' bag|(efg) e/f/af|g3  G2:|

